images/souvenir.svg

<svg xmlns="http://www.w3.org/2000/svg" width="84" height="84" fill="none">
  <path fill="#000" d="M71.1 27.5H46.3c13.8-6.9 14.9-11.3 14.4-13.7-1.2-4-5.7-7-10-5.4-5.6 2.1-7.1 10.4-8.6 16.4-2-6.1-3.8-13.8-8.2-17.7-1.3-1.1-3.1-2.3-5.8-2-4 .4-9.8 5.4-7.5 11 2.3 5.4 9.7 8.8 14.6 11.5H12.9a2.9 2.9 0 0 0-2.9 2.9v11.3c0 1.6 1.3 2.9 2.9 2.9h.3V81H71V44.6h.1c1.6 0 2.9-1.3 2.9-2.9V30.4c0-1.6-1.3-2.9-2.9-2.9ZM52.4 10.9c2.1-.3 5 1.3 5.3 3.2.4 2.8-3.4 5.3-5.1 6.4-2.5 1.7-4.9 2.6-7.3 4.1.9-3.7 2.5-13 7.1-13.7Zm-22.9 10c-2.2-1.5-6.5-4.4-6.4-7.8.1-3.6 5.7-6.6 8.8-3.9 3.9 3.4 5.7 11.1 7.1 16.6-3.2-1.5-6.3-2.8-9.5-4.9Zm6 57.1H16.1V44.6h19.4V78Zm0-36.5H13v-11h22.5v11Zm10.2 0V78h-7.2V30.6h7.2v10.9ZM68 78H48.6V44.6H68V78Zm2.9-36.5H48.6v-11h22.3v11Z"/>
</svg>

<svg width="84" height="84" viewBox="0 0 84 84" fill="none" xmlns="http://www.w3.org/2000/svg">
<path d="M71.1 27.5H71H46.3C60.1 20.6 61.2 16.2 60.7 13.8C59.5 9.79997 55 6.79997 50.7 8.39997C45.1 10.5 43.6 18.8 42.1 24.8C40.1 18.7 38.3 11 33.9 7.09997C32.6 5.99997 30.8 4.79997 28.1 5.09997C24.1 5.49997 18.3 10.5 20.6 16.1C22.9 21.5 30.3 24.9 35.2 27.6H13.2H12.9C11.3 27.6 10 28.9 10 30.5V41.8C10 43.4 11.3 44.7 12.9 44.7H13.2V78V80.4V81H71V80.5V78V44.6H71.1C72.7 44.6 74 43.3 74 41.7V30.4C74 28.8 72.7 27.5 71.1 27.5ZM52.4 10.9C54.5 10.6 57.4 12.2 57.7 14.1C58.1 16.9 54.3 19.4 52.6 20.5C50.1 22.2 47.7 23.1 45.3 24.6C46.2 20.9 47.8 11.6 52.4 10.9ZM29.5 20.9C27.3 19.4 23 16.5 23.1 13.1C23.2 9.49997 28.8 6.49997 31.9 9.19997C35.8 12.6 37.6 20.3 39 25.8C35.8 24.3 32.7 23 29.5 20.9ZM35.5 78H16.1V44.6H35.5V78ZM35.5 41.5H13V30.5H35.5V41.5ZM45.7 41.5V44.5V78H38.5V44.6V41.6V30.6H45.7V41.5ZM68 78H48.6V44.6H68V78ZM70.9 41.5H48.6V30.5H70.9V41.5Z" fill="black"/>
</svg>
